src/lib/packages/icons/src/assets/filled/note-text.svg

<svg width="24" height="24" viewBox="0 0 24 24" fill="none" xmlns="http://www.w3.org/2000/svg">
<path d="M17 3H7C5 3 4 4 4 6V18C4 20 5 21 7 21H17C19 21 20 20 20 18V6C20 4 19 3 17 3ZM13 16.75H8C7.586 16.75 7.25 16.414 7.25 16C7.25 15.586 7.586 15.25 8 15.25H13C13.414 15.25 13.75 15.586 13.75 16C13.75 16.414 13.414 16.75 13 16.75ZM16 12.75H8C7.586 12.75 7.25 12.414 7.25 12C7.25 11.586 7.586 11.25 8 11.25H16C16.414 11.25 16.75 11.586 16.75 12C16.75 12.414 16.414 12.75 16 12.75ZM16 8.75H8C7.586 8.75 7.25 8.414 7.25 8C7.25 7.586 7.586 7.25 8 7.25H16C16.414 7.25 16.75 7.586 16.75 8C16.75 8.414 16.414 8.75 16 8.75Z" fill="currentColor"/>
</svg>

<svg xmlns="http://www.w3.org/2000/svg" width="24" height="24" fill="none"><path fill="currentColor" d="M17 3H7C5 3 4 4 4 6v12c0 2 1 3 3 3h10c2 0 3-1 3-3V6c0-2-1-3-3-3Zm-4 13.75H8a.75.75 0 0 1 0-1.5h5a.75.75 0 0 1 0 1.5Zm3-4H8a.75.75 0 0 1 0-1.5h8a.75.75 0 0 1 0 1.5Zm0-4H8a.75.75 0 0 1 0-1.5h8a.75.75 0 0 1 0 1.5Z"/></svg>
